shared/images/iconfont/77-kb-iconfont-proof-good-16.svg

<svg height="16" viewBox="0 0 16 16" width="16" xmlns="http://www.w3.org/2000/svg"><path d="m15.22 5.526-.552 2.474.552 2.473-1.9 1.677-1.007 2.322-2.521.243-.673.396-1.509.889-1.51-.89-.672-.395-2.52-.243-1.009-2.323-1.899-1.677.552-2.472-.552-2.474 1.9-1.676 1.007-2.323 2.521-.242 2.182-1.285 2.182 1.285 2.52.242 1.009 2.323zm-3.905-.672a.8.8 0 0 0 -1.126.103l-3.539 4.245-1.8-1.2a.8.8 0 1 0 -.888 1.33l2.998 1.998 4.457-5.35a.8.8 0 0 0 -.102-1.126z"/></svg>

<svg xmlns="http://www.w3.org/2000/svg" width="16" height="16" viewBox="0 0 16 16">
    <path fill="#000" fill-rule="nonzero" d="M15.22 5.526L14.668 8l.552 2.473-1.9 1.677-1.007 2.322-2.521.243-.673.396-1.509.889-1.51-.89-.672-.395-2.52-.243-1.009-2.323L0 10.472.552 8 0 5.526 1.9 3.85l1.007-2.323 2.521-.242L7.61 0l2.182 1.285 2.52.242 1.009 2.323 1.899 1.676zm-3.905-.672a.8.8 0 0 0-1.126.103L6.65 9.202l-1.8-1.2a.8.8 0 1 0-.888 1.33L6.96 11.33l4.457-5.35a.8.8 0 0 0-.102-1.126z"/>
</svg>
